X:1
T:Congress Park -- Reel
R:reel
B:Ryan's Mammoth Collection
N:147
Z: Contributed by Ray Davies,  ray:davies99.freeserve.co.uk
M:2/4
L:1/16
K:G
uD2|\
G3B (d"4"e)dB | (d"4"e)dB (dc)BA | G3B (d"4"e)dB | Acfe dcBA |
G3B (de)dB    | (de)dB (dc)AF | G2 g4 (g2 | g2)[A2f2][B2g2] |]
vef|\
(ge)be (ge)be | (fe)^df eBef | (ge)be (ge)be | (fe)^df eBef |
(ge)be (ge)be | (fe)^df eBef | (ge)be (ge)be | (fe)^df e2  |]
